22x22/apps/ekiga.svg

<svg xmlns="http://www.w3.org/2000/svg" width="22" height="22" version="1.1">
 <circle style="opacity:0.2" cx="11" cy="11.5" r="10"/>
 <path style="fill:#fb8c15" d="M 21,11 A 10,9.999999 0 0 1 11.007977,20.999996 10,9.999999 0 0 1 1.0000127,11.015955 10,9.999999 0 0 1 10.976068,1.0000296 10,9.999999 0 0 1 20.999949,10.968091"/>
 <g style="fill:#c04500" transform="matrix(1.3169774,0,0,1.3097002,1.9887777,0.8181329)">
  <path style="fill:#c04500;fill-rule:evenodd" d="m 9.4516821,8.5573773 c -1.361048,5.5950807 -3.65625,4.4687497 -3.65625,4.4687497 -0.375464,-0.308536 -0.238119,-2.20461 0.125,-2.6875 0.482858,0.02124 0.88728,0.277255 1.65625,-2.0937497 0.759806,-2.3427472 0.216036,-2.6670399 -0.3125,-2.9375 -0.030879,-0.9892126 0.708848,-2.114069 1.25,-2.375 0,0 2.2913699,0.059428 0.9375,5.625 z"/>
  <path style="fill:#c04500;fill-rule:evenodd" d="m 7.6134826,2.5599675 c -0.5878379,0.6629012 -0.9639905,1.5265221 -1.21875,2.4375 0,0 -1.0251698,-0.7267779 -0.4825248,-1.8426399 0.554688,-1.140625 1.7012748,-0.5948601 1.7012748,-0.5948601 z"/>
  <path style="fill:#c04500;fill-rule:evenodd" d="m 5.1155026,10.157887 c -0.421843,0.790913 -0.477403,1.697615 -0.166681,2.720106 0,0 -1.080454,0.09726 -1.1417338,-1.450788 -0.061244,-1.5471355 1.3084148,-1.269318 1.3084148,-1.269318 z"/>
 </g>
 <path style="opacity:0.2;fill:none;stroke:#000000;stroke-width:0.5;stroke-linecap:round;stroke-linejoin:round" d="M 4.2498255,12.750043 C 4.4419677,11.923472 4.3946829,9.519805 4.980792,9.799539 5.5669,10.079273 6.0028435,13.837242 6.5566585,14.200043 7.110473,14.562844 6.8359065,11.918515 7.196051,11.050915 7.556193,10.183311 7.540967,11.215788 7.997228,10.554525 8.4534875,9.893257 8.516546,7.5882176 9.021091,8.4058566 9.525632,9.223496 9.466902,12.978071 10.0154,14.000043 c 0.548498,1.021973 0.633348,-1.711623 1.199682,-1.75 0.566333,-0.03838 0.738343,1.779732 1.06565,1.5 0.327308,-0.279734 0.03307,-1.189119 0.243579,-2.375225 0.210519,-1.18611 0.02545,-3.0886489 0.598498,-2.5247794 0.573048,0.5638704 1.021248,4.0652784 1.693698,4.7802544 0.672451,0.714977 0.237085,-1.64744 0.996102,-1.843239 0.759016,-0.195799 1.529971,0.795034 2.039964,1.060044"/>
 <path style="fill:none;stroke:#fff18f;stroke-width:0.5;stroke-linecap:round;stroke-linejoin:round" d="M 4.2498255,12.250043 C 4.4419677,11.423472 4.3946829,9.019807 4.980792,9.299541 5.5669,9.579275 6.0028435,13.337242 6.5566585,13.700043 7.110473,14.062844 6.8359065,11.418515 7.196051,10.550915 7.556193,9.683312 7.540967,10.715788 7.997228,10.054525 8.4534875,9.393259 8.516546,7.0882196 9.021091,7.9058586 c 0.504541,0.817639 0.445811,4.5722124 0.994309,5.5941844 0.548498,1.021973 0.633348,-1.711623 1.199682,-1.75 0.566333,-0.03838 0.738343,1.779732 1.06565,1.5 0.327308,-0.279734 0.03307,-1.189119 0.243579,-2.375225 0.210519,-1.186109 0.02545,-3.0886469 0.598498,-2.5247774 0.573048,0.56387 1.021248,4.0652764 1.693698,4.7802524 0.672451,0.714977 0.237085,-1.64744 0.996102,-1.843239 0.759016,-0.195799 1.529971,0.795034 2.039964,1.060044"/>
 <path style="opacity:0.2" d="m 19,12.5 a 1,1 0 0 1 -0.999202,1 1,1 0 0 1 -1.000797,-0.998405 1,1 0 0 1 0.997606,-1.001592 1,1 0 0 1 1.002388,0.996806"/>
 <path style="fill:#f4f4f7" d="m 19,12 a 1,1 0 0 1 -0.999202,1 1,1 0 0 1 -1.000797,-0.998405 1,1 0 0 1 0.997606,-1.001592 1,1 0 0 1 1.002388,0.996806"/>
 <path style="opacity:0.2;fill:#f4f4f7" d="M 11,1 A 10,10 0 0 0 1,11 10,10 0 0 0 1.01075,11.291 10,10 0 0 1 11,1.5 10,10 0 0 1 20.9895,11.209 10,10 0 0 0 21,11 10,10 0 0 0 11,1 Z"/>
</svg>

<svg xmlns="http://www.w3.org/2000/svg" width="22" height="22"><circle style="opacity:.2" cx="11" cy="11.5" r="10"/><path style="fill:#fb8c15" d="M21 11a10 10 0 0 1-9.992 10A10 10 0 0 1 1 11.016 10 10 0 0 1 10.976 1 10 10 0 0 1 21 10.968"/><g style="fill:#c04500"><path style="fill:#c04500;fill-rule:evenodd" d="M9.452 8.557c-1.361 5.595-3.657 4.47-3.657 4.47-.375-.31-.238-2.205.125-2.688.483.02.888.277 1.657-2.094.76-2.343.216-2.667-.313-2.938-.03-.989.709-2.114 1.25-2.375 0 0 2.292.06.938 5.625zM7.613 2.56c-.587.663-.964 1.526-1.218 2.437 0 0-1.025-.726-.483-1.842.555-1.14 1.701-.595 1.701-.595zM5.116 10.158c-.422.79-.478 1.698-.167 2.72 0 0-1.08.097-1.142-1.45-.061-1.548 1.309-1.27 1.309-1.27z" transform="matrix(1.31698 0 0 1.3097 1.989 .818)"/></g><path style="opacity:.2;fill:none;stroke:#000;stroke-width:.5;stroke-linecap:round;stroke-linejoin:round" d="M4.25 12.75c.192-.827.145-3.23.73-2.95.587.28 1.023 4.037 1.577 4.4.553.363.279-2.281.64-3.15.36-.867.344.166.8-.495.456-.662.52-2.967 1.024-2.15.505.818.446 4.573.994 5.595.549 1.022.634-1.712 1.2-1.75.566-.038.738 1.78 1.066 1.5.327-.28.033-1.19.243-2.375.21-1.186.026-3.089.599-2.525.573.564 1.021 4.065 1.694 4.78.672.715.237-1.647.996-1.843.759-.196 1.53.795 2.04 1.06"/><path style="fill:none;stroke:#fff18f;stroke-width:.5;stroke-linecap:round;stroke-linejoin:round" d="M4.25 12.25c.192-.827.145-3.23.73-2.95.587.28 1.023 4.037 1.577 4.4.553.363.279-2.281.64-3.15.36-.867.344.166.8-.495.456-.662.52-2.967 1.024-2.15.505.818.446 4.573.994 5.595.549 1.022.634-1.712 1.2-1.75.566-.038.738 1.78 1.066 1.5.327-.28.033-1.19.243-2.375.21-1.186.026-3.089.599-2.525.573.564 1.021 4.065 1.694 4.78.672.715.237-1.647.996-1.843.759-.196 1.53.795 2.04 1.06"/><path style="opacity:.2" d="M19 12.5a1 1 0 0 1-1 1 1 1 0 0 1-1-.998 1 1 0 0 1 .998-1.002 1 1 0 0 1 1.002.997"/><path style="fill:#f4f4f7" d="M19 12a1 1 0 0 1-1 1 1 1 0 0 1-1-.998A1 1 0 0 1 17.998 11a1 1 0 0 1 1.002.997"/><path style="opacity:.2;fill:#f4f4f7" d="M11 1A10 10 0 0 0 1 11a10 10 0 0 0 .01.291A10 10 0 0 1 11 1.5a10 10 0 0 1 9.99 9.709A10 10 0 0 0 21 11 10 10 0 0 0 11 1z"/></svg>
